public/assets/LoginBorder.svg

<svg width="259" height="99" viewBox="0 0 259 99" fill="none" xmlns="http://www.w3.org/2000/svg">
<path d="M213.023 4.77136H247.526L258.053 21.9182V86.5089L251.052 97.9118H181.245L174.994 87.7291H10.9944L4.07031 76.4517V16.8707L11.3045 5.0882H84.4684L92.0415 22.6993H203.609L213.023 4.77136Z" fill="#003259" fill-opacity="0.26"/>
<path d="M235.415 99H169.495L163.652 88.8233H10.4052L3.44629 76.7V15.9422L10.6942 3.31511H79.8415L86.9176 20.9185H190.352L199.149 3H232.12L242.446 20.9893V86.7517L235.415 99ZM170.185 96.0941H234.724L240.778 85.5486V22.1927L231.429 5.90594H199.918L191.121 23.8254H86.0494L78.9733 6.22105H11.3859L5.1143 17.1468V75.4976L11.0958 85.917H164.343L170.185 96.0941Z" fill="url(#paint0_linear_25_3905)"/>
<path d="M7.19432 51.3432H0.946289V14.7627L10.0102 0H59.0179V10.1764H12.5987L7.19432 18.9788V51.3432Z" fill="url(#paint1_linear_25_3905)"/>
<defs>
<linearGradient id="paint0_linear_25_3905" x1="3.44629" y1="51" x2="242.446" y2="51" gradientUnits="userSpaceOnUse">
<stop stop-color="#DF4E45"/>
<stop offset="1" stop-color="#BD32BB"/>
</linearGradient>
<linearGradient id="paint1_linear_25_3905" x1="0.946289" y1="25.6716" x2="59.0179" y2="25.6716" gradientUnits="userSpaceOnUse">
<stop stop-color="#DF4E45"/>
<stop offset="1" stop-color="#BD32BB"/>
</linearGradient>
</defs>
</svg>

<?xml version="1.0" encoding="utf-8"?>
<!-- Generator: Adobe Illustrator 25.2.0, SVG Export Plug-In . SVG Version: 6.00 Build 0)  -->
<svg version="1.1" id="Layer_1" xmlns="http://www.w3.org/2000/svg" xmlns:xlink="http://www.w3.org/1999/xlink" x="0px" y="0px"
	 viewBox="0 0 242.4 99" style="enable-background:new 0 0 242.4 99;" xml:space="preserve">
<style type="text/css">
	.st0{fill:#003259;fill-opacity:0.26;}
	.st1{fill:url(#SVGID_1_);}
	.st2{fill:url(#SVGID_2_);}
</style>
<path class="st0" d="M199.5,4.8h32.3l9.8,17.1v64.6l-6.5,11.4h-65.3L164,87.7H10.5L4.1,76.5V16.9l6.8-11.8h68.4l7.1,17.6h104.4
	L199.5,4.8z"/>
<linearGradient id="SVGID_1_" gradientUnits="userSpaceOnUse" x1="3.4463" y1="48.8898" x2="242.446" y2="48.8898" gradientTransform="matrix(1 0 0 -1 0 99.8898)">
	<stop  offset="0" style="stop-color:#DF4E45"/>
	<stop  offset="1" style="stop-color:#BD32BB"/>
</linearGradient>
<path class="st1" d="M235.4,99h-65.9l-5.8-10.2H10.4l-7-12.1V15.9l7.2-12.6h69.1l7.1,17.6h103.4L199.1,3h33l10.3,18v65.8L235.4,99z
	 M170.2,96.1h64.5l6.1-10.5V22.2l-9.3-16.3h-31.5l-8.8,17.9H86L79,6.2H11.4L5.1,17.1v58.4l6,10.4h153.2L170.2,96.1z"/>
<linearGradient id="SVGID_2_" gradientUnits="userSpaceOnUse" x1="0.9463" y1="74.2182" x2="59.0179" y2="74.2182" gradientTransform="matrix(1 0 0 -1 0 99.8898)">
	<stop  offset="0" style="stop-color:#DF4E45"/>
	<stop  offset="1" style="stop-color:#BD32BB"/>
</linearGradient>
<path class="st2" d="M7.2,51.3H0.9V14.8L10,0h49v10.2H12.6L7.2,19V51.3z"/>
</svg>
